picto/fire-extinguisher.svg

<svg class="color-immutable" width="24" height="24" viewBox="0 0 24 24" fill="none" xmlns="http://www.w3.org/2000/svg"><path d="M0 22.5V1.5C0 0.675 0.675 0 1.5 0H22.5C23.325 0 24 0.675 24 1.5V22.5C24 23.325 23.325 24 22.5 24H1.5C0.675 24 0 23.325 0 22.5Z" fill="#9B2423"/><path d="M9.28294 6.539V5.178L9.91694 5.156L10.5499 4.944V4.054L9.93994 3.796L9.02494 3.816V3H7.24494V3.656H6.32994L4.24494 5.508C4.24494 5.508 4.00894 5.672 3.89294 6.586C3.77594 7.5 3.89294 7.968 3.89294 7.968L4.64394 7.946L4.68994 6.796L5.62794 5.837L6.93994 5.327V6.538C6.92494 6.538 6.90994 6.54 6.89294 6.54C5.97794 6.564 5.11194 7.265 5.11194 8.391V21H11.1579V8.391C11.1579 7.57 10.3139 6.539 9.28294 6.539ZM10.4779 12.561H5.79194V9.773H10.4779V12.561Z" fill="white"/><path d="M20.101 12.082V9.798C20.101 9.798 19.584 9.667 19.046 8.984C18.598 8.413 17.936 6.564 17.936 6.564C17.936 6.564 17.358 8.477 18.122 9.939C18.985 11.596 20.101 12.082 20.101 12.082Z" fill="white"/><path d="M15.6099 9.109C15.8289 9.991 16.2579 11.577 17.1939 12.41C18.6529 13.707 20.1359 13.1 20.1359 13.1C20.1359 13.1 19.0159 12.702 18.3659 11.585C17.7129 10.468 17.3339 8.943 16.5489 8.257C15.4659 7.305 14.6129 7.66 14.6129 7.66C14.6129 7.66 15.3599 8.095 15.6099 9.109Z" fill="white"/><path d="M15.2469 11.017C15.2469 11.017 14.7569 12.734 16.3019 14.492C18.0489 16.479 20.1009 16.611 20.1009 16.611V14.326C20.1009 14.326 18.7489 14.203 17.4909 13.349C15.7989 12.201 15.2469 11.017 15.2469 11.017Z" fill="white"/><path d="M17.6249 18.35C19.3899 18.592 20.1009 17.668 20.1009 17.668C20.1009 17.668 19.3049 17.593 18.2579 16.931C17.5009 16.451 16.4449 14.895 15.2269 14.895C13.8249 14.895 13.5829 15.436 13.5829 15.436C13.5829 15.436 14.2349 15.565 14.8429 16.021C15.7179 16.678 16.1799 18.151 17.6249 18.35Z" fill="white"/><path d="M17.7959 18.974C16.5609 18.859 15.1489 17.747 15.1489 17.747C15.1489 17.747 15.1549 18.863 16.1089 19.935C17.0639 21.006 18.2309 20.991 18.6149 20.999C18.9639 21.008 20.1019 20.977 20.1019 20.977L20.0779 18.789C20.0779 18.789 19.0289 19.09 17.7959 18.974Z" fill="white"/></svg>

<svg class="color-immutable" width="24" height="24" viewBox="0 0 24 24" fill="none" xmlns="http://www.w3.org/2000/svg"><g clip-path="url(#a)"><path d="M0 22.5v-21C0 .675.675 0 1.5 0h21c.825 0 1.5.675 1.5 1.5v21c0 .825-.675 1.5-1.5 1.5h-21C.675 24 0 23.325 0 22.5Z" fill="#9B2423"/><path d="M9.283 6.539V5.178l.634-.022.633-.212v-.89l-.61-.258-.915.02V3h-1.78v.656H6.33L4.245 5.508s-.236.164-.352 1.078c-.117.914 0 1.382 0 1.382l.75-.022.047-1.15.938-.959 1.312-.51v1.211l-.047.002c-.915.024-1.781.725-1.781 1.851V21h6.046V8.391c0-.821-.844-1.852-1.875-1.852Zm1.195 6.022H5.792V9.773h4.686v2.788ZM20.101 12.082V9.798s-.517-.131-1.055-.814c-.448-.571-1.11-2.42-1.11-2.42s-.578 1.913.186 3.375c.863 1.657 1.979 2.143 1.979 2.143ZM15.61 9.109c.219.882.648 2.468 1.584 3.301 1.459 1.297 2.942.69 2.942.69s-1.12-.398-1.77-1.515c-.653-1.117-1.032-2.642-1.817-3.328-1.083-.952-1.936-.597-1.936-.597s.747.435.997 1.449Z" fill="#fff"/><path d="M15.247 11.017s-.49 1.717 1.055 3.475c1.747 1.987 3.799 2.119 3.799 2.119v-2.285s-1.352-.123-2.61-.977c-1.692-1.148-2.244-2.332-2.244-2.332ZM17.625 18.35c1.765.242 2.476-.682 2.476-.682s-.796-.075-1.843-.737c-.757-.48-1.813-2.036-3.031-2.036-1.402 0-1.644.541-1.644.541s.652.129 1.26.585c.875.657 1.337 2.13 2.782 2.329Z" fill="#fff"/><path d="M17.796 18.974c-1.235-.115-2.647-1.227-2.647-1.227s.006 1.116.96 2.188c.955 1.071 2.122 1.056 2.506 1.064.349.009 1.487-.022 1.487-.022l-.024-2.188s-1.05.301-2.282.185Z" fill="#fff"/></g><defs><clipPath id="a"><path fill="#fff" d="M0 0h24v24H0z"/></clipPath></defs></svg>
